X: 12975
T: Fido
R: reel
M: 4/4
K: Aminor
AEEA BcAe|~e2dc BecB|AEEA BcAe|~e2de fgga:|
agfa edce|fecB BGA2|AEEA BcAe|1 ~e2dc ABBg:|2 ~e2dc ABA2||

